X: 276
T: Jerry's Beaver Hat
M: 6/8
L: 1/8
R: jig
K:Dmaj
D|"D"DFA d2 e|fdB BAF|ABA dAF|"A"EFE GFE|
"D"DFA d2 e|fdB BAF|ABA dAF|DED D2 :||
d|"D"dfa afd|"G"gbg "D"faf|dfa afd|"A"cee ecA|
"D"dfa afd|"G"gbg "D"faf|"G"BdB "D"AFd|DED D2 :||


